public/svg/usecases/slider/gaming-wallet.svg

<svg width="32" height="32" viewBox="0 0 32 32" fill="none" xmlns="http://www.w3.org/2000/svg">
<g clip-path="url(#clip0_225_3066)">
<path d="M25.007 12.3345L20.1465 4.54703C19.8016 3.99447 19.0866 3.8337 18.5468 4.18667L6.02344 12.377H24.942L25.0089 12.3345H25.007Z" fill="#3B82F6" fill-opacity="0.25"/>
<path d="M27.5804 23.1821V25.7601C27.5804 26.0188 27.5786 26.2701 27.4847 26.5178C27.2608 27.1073 26.7029 27.4418 26.0998 27.4436C25.9084 27.4436 25.717 27.4436 25.5256 27.4436H6.21702C6.00397 27.4436 5.79813 27.4492 5.58869 27.3919C4.92605 27.2052 4.54327 26.5898 4.54147 25.9079C4.54147 25.5975 4.54147 25.2852 4.54147 24.9747V16.6513C4.54147 15.9139 4.53063 15.1747 4.54147 14.4374C4.5523 13.6261 5.18063 12.9849 5.97327 12.9738C6.11049 12.9719 6.24772 12.9738 6.38674 12.9738H24.7529C25.2169 12.9738 25.6827 12.9682 26.1467 12.9738C26.9466 12.9849 27.5695 13.6335 27.5786 14.4503C27.5858 15.0195 27.5786 15.5905 27.5786 16.1597V17.6122C27.5786 17.9689 28.1202 17.9689 28.1202 17.6122C28.1202 16.5533 28.1365 15.4926 28.1202 14.4355C28.104 13.3785 27.2355 12.4378 26.154 12.4212C26.0384 12.4212 25.9247 12.4212 25.8091 12.4212H7.22633C6.78758 12.4212 6.34522 12.4046 5.90647 12.4212C4.84841 12.4619 4.01785 13.3545 4.0016 14.4318C3.9998 14.6444 4.0016 14.855 4.0016 15.0675V23.3854C4.0016 24.2392 3.99799 25.093 4.0016 25.9467C4.00522 26.8005 4.49452 27.5582 5.27633 27.8668C5.56702 27.9814 5.86855 27.9962 6.17369 27.9962H24.603C25.114 27.9962 25.6267 28.0017 26.1377 27.9962C26.9917 27.9851 27.7519 27.4399 28.0227 26.6046C28.2051 26.0428 28.1184 25.3443 28.1184 24.7622V23.1784C28.1184 22.8218 27.5767 22.8218 27.5767 23.1784L27.5804 23.1821Z" fill="#252B37"/>
<path d="M28.7366 22.7036C27.2416 22.7036 25.7448 22.7036 24.2498 22.7036C23.6847 22.7036 23.1213 22.711 22.5562 22.7036C21.9495 22.6962 21.3772 22.3857 21.0558 21.8535C20.7831 21.4026 20.7885 20.924 20.7885 20.4158C20.7885 19.9076 20.7452 19.4326 20.9547 18.9836C21.2508 18.3497 21.8701 17.9561 22.5526 17.9468C23.0653 17.9394 23.5781 17.9468 24.0891 17.9468C25.6328 17.9468 27.1856 17.9006 28.7294 17.9468C29.1826 17.9598 29.448 18.3164 29.4498 18.7562C29.4498 19.1277 29.4498 19.501 29.4498 19.8724V21.3342C29.4498 21.5929 29.4895 21.8942 29.4299 22.1492C29.3523 22.48 29.0616 22.6943 28.7366 22.7054C28.3881 22.7165 28.3881 23.2709 28.7366 23.2598C29.4408 23.2377 29.9752 22.6814 29.9915 21.9625C29.9987 21.6188 29.9915 21.2751 29.9915 20.9313V19.355C29.9915 19.0408 30.0258 18.6953 29.959 18.3848C29.829 17.7824 29.2873 17.398 28.7041 17.3924C28.464 17.3906 28.222 17.3924 27.9819 17.3924C26.9942 17.3924 26.0066 17.3924 25.019 17.3924H22.6735C22.2348 17.3924 21.8123 17.4719 21.4241 17.6936C20.7669 18.0706 20.339 18.7636 20.2595 19.5269C20.2162 19.9556 20.2469 20.4028 20.2469 20.8334C20.2487 21.5024 20.4834 22.1436 20.9637 22.6093C21.4024 23.0344 21.9784 23.2561 22.5797 23.258C22.8126 23.258 23.0455 23.258 23.2784 23.258H28.603C28.6481 23.258 28.6915 23.258 28.7366 23.258C29.0851 23.258 29.0851 22.7036 28.7366 22.7036Z" fill="#252B37"/>
<path d="M24.1013 20.1219C24.0995 20.2882 24.0616 20.4084 23.9568 20.5636C23.9117 20.632 23.9749 20.5433 23.9442 20.5802C23.9298 20.5969 23.9153 20.6135 23.9009 20.6283C23.8882 20.6412 23.8774 20.6523 23.8648 20.6652C23.863 20.6671 23.798 20.7225 23.8413 20.6893C23.807 20.717 23.7709 20.7392 23.733 20.7613C23.7185 20.7706 23.7023 20.778 23.6878 20.7854C23.6589 20.7983 23.6571 20.8001 23.6806 20.7891C23.668 20.7946 23.6571 20.7983 23.6445 20.8038C23.603 20.8186 23.5614 20.8316 23.5181 20.8408C23.5055 20.8426 23.4495 20.8519 23.4982 20.8463C23.4766 20.85 23.4531 20.85 23.4296 20.8519C23.3845 20.8537 23.3393 20.8519 23.2924 20.8482C23.2437 20.8426 23.352 20.863 23.2707 20.8445C23.2455 20.839 23.2184 20.8334 23.1931 20.826C23.1678 20.8186 23.1425 20.8094 23.1191 20.802C23.1118 20.8001 23.0721 20.7798 23.1118 20.8001C23.0721 20.7817 23.0342 20.7613 22.9981 20.7373C22.9259 20.6911 22.897 20.6615 22.823 20.5747C22.85 20.608 22.823 20.5747 22.8175 20.5691C22.8031 20.547 22.7887 20.5248 22.776 20.5026C22.767 20.4878 22.758 20.473 22.7507 20.4564C22.7507 20.4527 22.7128 20.3751 22.7345 20.4268C22.7182 20.3862 22.7056 20.3418 22.6948 20.2993C22.6912 20.2809 22.6875 20.2642 22.6839 20.2457C22.6785 20.2125 22.6785 20.2106 22.6821 20.2384C22.6821 20.2254 22.6785 20.2106 22.6785 20.1977C22.6749 20.1552 22.6749 20.1127 22.6785 20.072C22.6785 20.0683 22.6893 19.9796 22.6803 20.0351C22.6839 20.0166 22.6857 20 22.6912 19.9815C22.7002 19.9371 22.7146 19.8946 22.7291 19.8521C22.7543 19.7763 22.7056 19.8909 22.7435 19.8207C22.7562 19.7985 22.767 19.7745 22.7814 19.7505C22.7923 19.732 22.8049 19.7135 22.8157 19.695C22.823 19.6858 22.8573 19.6414 22.8284 19.6784C22.8555 19.6451 22.8843 19.6137 22.9168 19.5842C22.9132 19.5879 22.9764 19.5324 22.9475 19.5546C22.9187 19.5768 22.9855 19.5269 22.9818 19.5287C23.0252 19.4991 23.0703 19.4733 23.1173 19.4511C23.1064 19.4566 23.0739 19.4659 23.1245 19.4493C23.1498 19.44 23.1732 19.4326 23.1985 19.4252C23.2148 19.4197 23.2328 19.416 23.2491 19.4123C23.2437 19.4123 23.3303 19.3975 23.2924 19.4031C23.2545 19.4086 23.343 19.3994 23.3375 19.3994C23.361 19.3994 23.3827 19.3994 23.4062 19.3994C23.4296 19.3994 23.4513 19.4012 23.4748 19.4031C23.5362 19.4067 23.4549 19.3938 23.5091 19.4086C23.5614 19.4215 23.6102 19.4345 23.6607 19.4529C23.7384 19.4807 23.6373 19.44 23.6806 19.4622C23.7077 19.4751 23.7348 19.4899 23.76 19.5065C23.7745 19.5158 23.7889 19.525 23.8034 19.5343C23.8178 19.5435 23.8323 19.5546 23.8449 19.5638C23.8232 19.5472 23.825 19.549 23.8503 19.5694C23.881 19.6008 23.9117 19.6304 23.9406 19.6618C23.9948 19.7191 23.9171 19.623 23.9623 19.6876C23.9767 19.7098 23.9912 19.7301 24.0038 19.7542C24.0164 19.7782 24.0291 19.8004 24.0417 19.8244C24.0688 19.8724 24.0363 19.7985 24.0562 19.8558C24.0742 19.9076 24.0868 19.9593 24.0995 20.011C24.1013 20.0184 24.1067 20.0646 24.1013 20.0184C24.1049 20.0554 24.1067 20.0924 24.1067 20.1293C24.1085 20.279 24.2295 20.4065 24.3775 20.4065C24.5256 20.4065 24.6502 20.279 24.6484 20.1293C24.6412 19.586 24.3143 19.1148 23.8196 18.9226C23.3249 18.7304 22.7616 18.8967 22.4402 19.2996C22.1188 19.7024 22.0412 20.3141 22.3174 20.7854C22.5937 21.2566 23.1227 21.4839 23.6427 21.3878C24.2277 21.2806 24.6412 20.7244 24.6502 20.1312C24.652 19.9815 24.5238 19.854 24.3793 19.854C24.2349 19.854 24.1103 19.9815 24.1085 20.1312L24.1013 20.1219Z" fill="#252B37"/>
<path d="M22.6919 5.94026L6.18555 12.3676H26.0087L23.8114 6.45585C23.6417 5.99755 23.1397 5.76654 22.6919 5.94211V5.94026Z" fill="#3B82F6" fill-opacity="0.8"/>
</g>
<defs>
<clipPath id="clip0_225_3066">
<rect width="26" height="24" fill="white" transform="translate(4 4)"/>
</clipPath>
</defs>
</svg>

<svg xmlns="http://www.w3.org/2000/svg" width="32" height="32" fill="none" viewBox="0 0 32 32"><g clip-path="url(#a)"><path fill="#3b82f6" fill-opacity=".25" d="m25.007 12.335-4.86-7.788a1.14 1.14 0 0 0-1.6-.36l-12.524 8.19h18.919l.067-.043z"/><path fill="#252b37" d="M27.58 23.182v2.578c0 .259-.001.51-.095.758-.224.59-.782.924-1.385.926H6.217c-.213 0-.419.005-.628-.052-.663-.187-1.046-.802-1.048-1.484V16.65c0-.737-.01-1.476 0-2.214.011-.81.64-1.452 1.432-1.463q.205-.002.414 0h18.366c.464 0 .93-.006 1.394 0 .8.01 1.423.66 1.432 1.476.007.57 0 1.14 0 1.71v1.452c0 .357.541.357.541 0 0-1.059.017-2.12 0-3.176-.016-1.057-.885-1.998-1.966-2.015H7.226c-.438 0-.88-.016-1.32 0-1.058.04-1.888.934-1.904 2.01q-.002.318 0 .637v8.317c0 .854-.004 1.708 0 2.562.003.854.493 1.611 1.274 1.92.291.114.593.13.898.13h18.429c.511 0 1.024.005 1.535 0a2 2 0 0 0 1.885-1.392c.182-.562.095-1.26.095-1.843v-1.584c0-.356-.541-.356-.541 0z"/><path fill="#252b37" d="M28.737 22.704H24.25c-.565 0-1.129.007-1.694 0a1.77 1.77 0 0 1-1.5-.85c-.273-.451-.268-.93-.268-1.438s-.043-.983.167-1.432a1.79 1.79 0 0 1 1.598-1.037c.512-.008 1.025 0 1.536 0 1.544 0 3.097-.046 4.64 0 .454.013.719.37.72.81v2.577c0 .259.04.56-.02.815a.73.73 0 0 1-.692.556c-.349.012-.349.566 0 .555.704-.022 1.238-.579 1.255-1.298.007-.343 0-.687 0-1.03v-1.577c0-.314.034-.66-.033-.97-.13-.603-.672-.987-1.255-.993h-6.03c-.44 0-.862.08-1.25.302-.657.377-1.085 1.07-1.165 1.833-.043.429-.012.876-.012 1.306.002.67.236 1.31.717 1.776a2.32 2.32 0 0 0 1.616.649h6.157c.348 0 .348-.554 0-.554"/><path fill="#252b37" d="M24.101 20.122a.73.73 0 0 1-.144.442c-.045.068.018-.02-.013.016l-.043.048-.036.037c-.002.002-.067.058-.024.024a1 1 0 0 1-.108.072q-.023.014-.045.024l-.007.004-.037.015a1 1 0 0 1-.146.042q-.032.005-.068.006-.068.003-.138-.004c-.048-.005.06.015-.021-.003l-.078-.019-.074-.024c-.007-.002-.047-.022-.007-.002a1 1 0 0 1-.114-.063.7.7 0 0 1-.175-.162c.027.033 0 0-.006-.006a1 1 0 0 1-.082-.142 1 1 0 0 1-.04-.128l-.011-.053q-.008-.05-.002-.008l-.003-.04a1 1 0 0 1 0-.126c0-.004.01-.092.001-.037l.011-.053q.016-.067.038-.13c.025-.076-.023.039.015-.031q.017-.035.037-.07l.035-.056a1 1 0 0 0 .1-.11c-.003.003.06-.053.032-.03l.034-.026a1 1 0 0 1 .135-.078c-.01.006-.043.015.008-.002l.073-.024.051-.013c-.005 0 .081-.014.043-.009s.051-.004.045-.004h.07q.033 0 .068.004c.061.004-.02-.01.034.006q.077.018.152.044c.077.028-.024-.013.02.01a1 1 0 0 1 .079.043l.043.028q.023.015.042.03-.033-.025.005.005.047.047.09.093c.055.057-.023-.039.022.026q.023.031.042.066l.038.07c.027.048-.006-.026.014.032q.025.078.043.155c.002.007.008.054.002.007q.006.056.006.111c.002.15.123.277.27.277a.276.276 0 0 0 .271-.277 1.3 1.3 0 0 0-.828-1.206 1.22 1.22 0 0 0-1.38.377c-.321.402-.399 1.014-.123 1.485a1.26 1.26 0 0 0 1.326.603c.585-.107.998-.664 1.007-1.257a.28.28 0 0 0-.27-.277.28.28 0 0 0-.271.277z"/><path fill="#3b82f6" fill-opacity=".8" d="M22.692 5.94 6.186 12.368h19.823L23.81 6.456a.86.86 0 0 0-1.12-.514z"/></g><defs><clipPath id="a"><path fill="#fff" d="M4 4h26v24H4z"/></clipPath></defs></svg>
